apps/web/src/assets/svgs/heart.svg

<?xml version="1.0" encoding="UTF-8" standalone="no"?>
<!-- Created with Inkscape (http://www.inkscape.org/) -->

<svg
   width="8mm"
   height="8mm"
   viewBox="0 0 8 8"
   version="1.1"
   id="svg1"
   sodipodi:docname="heart_flat.svg"
   inkscape:version="1.3.2 (091e20ef0f, 2023-11-25)"
   xmlns:inkscape="http://www.inkscape.org/namespaces/inkscape"
   xmlns:sodipodi="http://sodipodi.sourceforge.net/DTD/sodipodi-0.dtd"
   xmlns="http://www.w3.org/2000/svg"
   xmlns:svg="http://www.w3.org/2000/svg">
  <sodipodi:namedview
     id="namedview1"
     pagecolor="#ffffff"
     bordercolor="#000000"
     borderopacity="0.25"
     inkscape:showpageshadow="2"
     inkscape:pageopacity="0.0"
     inkscape:pagecheckerboard="0"
     inkscape:deskcolor="#d1d1d1"
     inkscape:document-units="mm"
     inkscape:zoom="13.556886"
     inkscape:cx="30.759277"
     inkscape:cy="29.800355"
     inkscape:window-width="2560"
     inkscape:window-height="1515"
     inkscape:window-x="0"
     inkscape:window-y="1415"
     inkscape:window-maximized="1"
     inkscape:current-layer="layer1" />
  <defs
     id="defs1" />
  <g
     inkscape:label="Capa 1"
     inkscape:groupmode="layer"
     id="layer1"
     transform="translate(-183.64236,-76.39782)">
    <g
       id="g472"
       transform="matrix(0.96567742,0,0,1.0192057,68.107024,-81.529082)">
      <path
         id="path471"
         style="color:#000000;fill:#000000;stroke-linecap:round;stroke-linejoin:round;-inkscape-stroke:none"
         d="M 125.55388 155.24351 C 125.51776 155.2427 125.48155 155.24292 125.44525 155.24402 C 124.86437 155.26172 124.27027 155.54238 123.82594 156.12675 C 123.81584 156.14005 123.80546 156.15152 123.79276 156.16782 C 123.78006 156.15152 123.76969 156.14005 123.75959 156.12675 C 123.31457 155.54147 122.71473 155.264 122.13065 155.25011 C 121.54657 155.23621 120.98616 155.4705 120.55468 155.85347 C 120.12319 156.23643 119.81537 156.7757 119.76751 157.38672 C 119.71961 157.99773 119.94283 158.66701 120.50759 159.26931 C 121.52501 160.35434 123.58032 162.41997 123.58032 162.41997 A 0.30003001 0.30003001 0 0 0 123.77136 162.50768 C 123.77169 162.50771 123.82404 162.50772 123.82434 162.50768 C 123.82473 162.50764 123.8527 162.50257 123.8634 162.49957 C 123.8847 162.49457 123.89786 162.49058 123.90996 162.48588 C 123.93416 162.47588 123.949 162.46763 123.9608 162.46053 C 123.9844 162.44643 123.99867 162.43522 124.01377 162.42352 C 124.04417 162.40012 124.07406 162.37521 124.10956 162.34341 C 124.18046 162.27991 124.27147 162.19251 124.38087 162.08584 C 124.59966 161.8725 124.89027 161.58088 125.20872 161.25381 C 125.84563 160.59965 126.59127 159.81026 127.08222 159.26525 C 127.63423 158.65247 127.8489 157.98038 127.79876 157.36897 C 127.74856 156.75756 127.44496 156.2185 127.01586 155.83775 C 126.61357 155.4808 126.09564 155.25569 125.55388 155.24351 z M 125.46505 155.84383 C 125.87325 155.83143 126.29273 155.99908 126.61719 156.28698 C 126.94165 156.57487 127.16478 156.97623 127.20102 157.41815 C 127.23722 157.86006 127.0969 158.35406 126.63645 158.86521 C 126.15541 159.39919 125.41127 160.1846 124.77901 160.83399 C 124.46287 161.15869 124.17301 161.44946 123.9608 161.65639 C 123.8976 161.71799 123.85831 161.75388 123.81042 161.79886 C 123.57685 161.56389 121.88295 159.85906 120.94533 158.85912 C 120.47538 158.35793 120.3309 157.87184 120.36525 157.43336 C 120.39965 156.99489 120.62571 156.59349 120.95336 156.30269 C 121.281 156.0119 121.70531 155.83961 122.11727 155.84941 C 122.52922 155.85941 122.93542 156.03272 123.28332 156.49029 C 123.38012 156.61766 123.56052 156.84166 123.56052 156.84166 A 0.30003001 0.30003001 0 0 0 124.02555 156.84166 C 124.02555 156.84166 124.20597 156.61747 124.30274 156.49029 C 124.65134 156.03181 125.05685 155.85624 125.46505 155.84383 z M 125.85623 156.46139 A 0.25 0.25 0 0 0 125.60954 156.65254 A 0.25 0.25 0 0 0 125.79309 156.95524 C 125.87289 156.97474 126.01509 157.07903 126.09543 157.21686 C 126.17583 157.35468 126.19787 157.4994 126.14253 157.62502 A 0.25 0.25 0 0 0 126.27149 157.95509 A 0.25 0.25 0 0 0 126.60167 157.82631 C 126.73435 157.52526 126.66799 157.20632 126.52729 156.96487 C 126.38654 156.72343 126.17571 156.53356 125.91188 156.469 A 0.25 0.25 0 0 0 125.85623 156.46139 z " />
    </g>
  </g>
</svg>

<svg xmlns="http://www.w3.org/2000/svg" width="8mm" height="8mm" viewBox="0 0 8 8"><path d="M125.554 155.244h-.109c-.58.018-1.175.298-1.62.883l-.032.04-.033-.04c-.445-.586-1.045-.863-1.63-.877-.583-.014-1.144.22-1.575.603s-.74.923-.787 1.534c-.048.61.175 1.28.74 1.882 1.017 1.085 3.072 3.151 3.072 3.151a.3.3 0 0 0 .191.088h.053a1 1 0 0 0 .086-.022.4.4 0 0 0 .05-.025c.024-.015.039-.026.054-.037l.096-.08q.106-.097.27-.258c.22-.214.51-.505.829-.832a79 79 0 0 0 1.873-1.989c.552-.613.767-1.285.717-1.896a2.3 2.3 0 0 0-.783-1.531 2.3 2.3 0 0 0-1.462-.594m-.089.6c.408-.013.828.155 1.152.443.325.288.548.69.584 1.131s-.104.936-.565 1.447a79 79 0 0 1-2.675 2.791c-.063.062-.103.098-.15.143-.234-.235-1.928-1.94-2.866-2.94-.47-.501-.614-.987-.58-1.426s.26-.84.588-1.13c.328-.291.752-.463 1.164-.454s.818.184 1.166.641c.097.128.278.352.278.352a.3.3 0 0 0 .465 0s.18-.225.277-.352c.348-.458.754-.634 1.162-.646m.391.617a.25.25 0 0 0-.246.192.25.25 0 0 0 .183.302c.08.02.222.124.302.262s.103.282.048.408a.25.25 0 0 0 .128.33.25.25 0 0 0 .33-.129c.133-.3.067-.62-.074-.861-.14-.242-.351-.431-.615-.496a.3.3 0 0 0-.056-.008" style="color:#000;fill:#000;stroke-linecap:round;stroke-linejoin:round;-inkscape-stroke:none" transform="matrix(.96568 0 0 1.0192 -115.535 -157.927)"/></svg>
